images/color/svg/1f196.svg

<svg id="emoji" viewBox="0 0 72 72" xmlns="http://www.w3.org/2000/svg">
  <g id="color">
    <g id="color-2">
      <path fill="#92d3f5" d="M59.0349,59h-46.07A.9679.9679,0,0,1,12,58.0349v-46.07A.9679.9679,0,0,1,12.9651,11h46.07A.9679.9679,0,0,1,60,11.9651v46.07A.9679.9679,0,0,1,59.0349,59Z"/>
    </g>
  </g>
  <g id="line">
    <g id="NG_Button">
      <path fill="none" stroke="#000" stroke-miterlimit="10" stroke-width="2" d="M59.0349,59.3333h-46.07A.9679.9679,0,0,1,12,58.3682v-46.07a.9679.9679,0,0,1,.9651-.9651h46.07A.9679.9679,0,0,1,60,12.2984v46.07A.9679.9679,0,0,1,59.0349,59.3333Z"/>
      <polyline fill="none" stroke="#000" stroke-linecap="round" stroke-linejoin="round" stroke-width="2" points="22 42.833 22 27.833 32.714 42.833 32.714 27.833"/>
      <path fill="none" stroke="#000" stroke-linecap="round" stroke-linejoin="round" stroke-width="2" d="M50.1964,29.1816a5.3366,5.3366,0,0,0-3.5535-1.3483h0a5.3572,5.3572,0,0,0-5.3572,5.3572v4.2857a5.3572,5.3572,0,0,0,5.3572,5.3571h0A5.3572,5.3572,0,0,0,52,37.4762V35.3053H47.7143"/>
    </g>
  </g>
</svg>

<svg viewBox="0 0 72 72" xmlns="http://www.w3.org/2000/svg"><path fill="#92d3f5" d="M59.035 59h-46.07a.968.968 0 0 1-.965-.965v-46.07a.968.968 0 0 1 .965-.965h46.07a.968.968 0 0 1 .965.965v46.07a.968.968 0 0 1-.965.965z"/><g fill="none" stroke="#000" stroke-width="2"><path stroke-miterlimit="10" d="M59.035 59.333h-46.07a.968.968 0 0 1-.965-.965v-46.07a.968.968 0 0 1 .965-.965h46.07a.968.968 0 0 1 .965.965v46.07a.968.968 0 0 1-.965.965z"/><path stroke-linecap="round" stroke-linejoin="round" d="M22 42.833v-15l10.714 15v-15m17.482 1.349a5.337 5.337 0 0 0-3.553-1.349h0a5.357 5.357 0 0 0-5.357 5.358v4.285a5.357 5.357 0 0 0 5.357 5.357h0A5.357 5.357 0 0 0 52 37.476v-2.17h-4.286"/></g></svg>
